!!!OTL: 1303. Der plappernde Junggesell.
!!!ODT: 1611
!!!ARE: Europa, Mitteleuropa, Deutschland
!!!SCT: E1303
!!!TXL: @@DE
!!!YEM: Copyright 1995, estate of Helmut Schaffrath.
**kern	**text
*ICvox	*
*M4/4	*
*met(c)	*
*k[f#]	*
*G:	*
!LO:TX:a:t=Mel. 1611.	!
{4d	Es
=1	=1
2g	ſa-
2b/	-ßen
=2	=2
2.dd}	drei
{4cc	Ge-
=3	=3
(2b/	-ſel-
2a)	.
=4	=4
2g	-len,
4r}	.
{4d	Sie
=5	=5
2g	aßen
2b/	und
=6	=6
2.dd}	tran-
{4cc	-ken
=7	=7
(2b/	küh-
2a)	-len
=8	=8
2g	Wein,
4r}	.
{4g	ſie
=9	=9
4b	hiel-
4b	-ten
4b	mit
4b	ein-
=10	=10
2b/	-an-
4a}	-der
{4g	ein'
=11	=11
(4b	hei-
4dd)	-me-
4cc	-li-
4b	-chen
=12	=12
2a	Rath
4r}	.
{4d	und
=13	=13
4g	welcher
4a	.
4b	auf
4cc	den
=14	=14
(4.dd	A-
8ee)	.
4dd}	-bend
{4cc	ein
=15	=15
4b/	ſte-
4b/	-ten
4a	Buh-
4a	-len
=16	=16
2g	hat.
4r}	.
==	==
!!!AGN: Staende -, Soldaten - Lied, Reiter
!!!ONB: ESAC (Essen Associative Code) Database: ERK3
!!!AMT: simple quadruple
!!!AIN: vox
!!!EED: Helmut Schaffrath
!!!EEV: 1.0
!!!GTL: Staendelieder (Berufslieder). 1. Soldaten- und Kriegslieder. Landsknechts- und Reiterlieder.
!!!URL-scan: https://rosdok.uni-rostock.de/mcrviewer/recordIdentifier/rosdok_ppn745177999/iview2/phys_0193.iview2?x=-128.77276441889285&y=1961.0321402420523&scale=0.5870222003877487&rotation=0&layout=singlePageLayout
!!!ENC: Anna Maria Matuszewska
!!!EEV: 2024/12/27
*-	*-
